!!!COM: L van Beethoven
!!!OTL: String Quartet No15 Op 132
**kern	**dynam	**kern	**dynam	**kern	**dynam	**kern	**dynam	**mxhm
*part4	*part4	*part3	*part3	*part2	*part2	*part1	*part1	*part1
*staff4	*	*staff3	*	*staff2	*	*staff1	*	*
*I"Violoncello	*	*I"Viola	*	*I"Violin II	*	*I"Violin I	*	*
*I'Vc.	*	*I'Vla.	*	*I'Vln. II	*	*I'Vln. I	*	*
*clefF4	*	*clefC3	*	*clefG2	*	*clefG2	*	*
*k[f#]	*	*k[f#]	*	*k[f#]	*	*k[f#]	*	*
*M4/4	*	*M4/4	*	*M4/4	*	*M4/4	*	*
*met(c)	*	*met(c)	*	*met(c)	*	*met(c)	*	*
=1	=1	=1	=1	=1	=1	=1	=1	=1
!	!	!	!	!	!	!LO:TX:a:B:t=Alla Marcia, assai vivace	!	!
4r	.	4r	.	4r	.	8.dL	f	.A.I
.	.	.	.	.	.	16g'Jk	sf	.
[4GG	f	8.DL	f	8.BL	f	[4b	.	.
.	.	16G'Jk	.	16d'Jk	.	.	.	.
8.GGL]	>	(8.BL	>	(8.gL	>	8.bL]	>	.
16BBJk	.	16dJk)	.	16dK)	.	16gK	.	I6
8AAL	] p	8cL	] p	8f#	] p	8a	] p	viio6
16r	.	16r	.	16r	.	16r	.	.
16GGJk	.	16DJk	.	16BJk 16g	.	16bJk	.	I
=2	=2	=2	=2	=2	=2	=2	=2	=2
8FF#	.	8D	.	8A	.	8cc	.	V65
8r	.	8r	.	8r	.	8r	.	.
8GG	.	8D	.	8G	.	8b	.	I\\
8r	.	8r	.	8r	.	8r	.	.
2r	.	2r	.	2r	.	2r	.	.
=3	=3	=3	=3	=3	=3	=3	=3	=3
8.GGL	f	8.GL	f	4r	.	8.gL	f	I
16DD'Jk	.	16D'Jk	.	.	.	16b'Jk	.	.
!	!	!	!LO:DY:a	!	!	!	!	!
[4BBB	.	[4BB	f	8.GL	.	[4dd	.	I6
.	.	.	.	16B'Jk	.	.	.	.
(8.BBBL]	>	(8.BBL]	>	(8.dL	>	(8.ddL]	>	.
16GGJk)	.	16GJk)	.	16BJk)	.	16bJk)	.	I
8EEL	] p	8EL	] p	8gL	] p	8ccL	] p	IV6
16r	.	16r	.	16r	.	16r	.	.
16CCJk	.	16CJk	.	16eJk	.	16eeJk	.	IV
=4	=4	=4	=4	=4	=4	=4	=4	=4
8DD	.	8D	.	8B 8g	.	8b	.	V(64)
8r	.	8r	.	8r	.	8r	.	.
8D	.	8d	.	8f#	.	8a	.	V\\
8r	.	8r	.	8r	.	8r	.	.
2r	.	(16DLL	.	4r	.	4r	.	V7
.	.	16F#	.	.	.	.	.	.
.	.	16A	.	.	.	.	.	.
.	.	16cJJ)	.	.	.	.	.	.
.	.	4r	.	(16dLL	.	8.ccL	.	.
.	.	.	.	16f#	.	.	.	.
.	.	.	.	16b	.	.	.	.
.	.	.	.	16f#JJ)	.	16ccJk	.	.
=5	=5	=5	=5	=5	=5	=5	=5	=5
8.FF#L	.	1D 1A	.	4a	.	(4.cc	.	V6
16AA'Jk	.	.	.	.	.	.	.	.
4D	.	.	.	8.F#L	.	.	.	.
.	.	.	.	.	.	8a	.	.
.	.	.	.	16A'Jk	.	.	.	.
4r	.	.	.	4d	.	8gL	.	.
.	.	.	.	.	.	8f#	.	.
4C	.	.	.	4F#	.	8a)	.	V2
.	.	.	.	.	.	16r	.	.
.	.	.	.	.	.	16ddJk	.	.
=6	=6	=6	=6	=6	=6	=6	=6	=6
8.BBBL	.	2.D 2.G	.	4r	.	(4.dd	.	I
16DD'Jk	.	.	.	.	.	.	.	.
4GG	.	.	.	8.BL	.	.	.	.
.	.	.	.	.	.	8b	.	.
.	.	.	.	16d'Jk	.	.	.	.
4r	.	.	.	4g	.	8aL	.	.
.	.	.	.	.	.	8g	.	.
4EE	.	4E 4G	.	4B 4g	.	8gg)	.	V.ii
.	.	.	.	.	.	16r	.	.
.	.	.	.	.	.	16eeJk	.	.
=7	=7	=7	=7	=7	=7	=7	=7	=7
4AA	.	(16ELL	.	(16gLL	.	(4.dd	.	V7(4)
.	.	16D#X	.	16f#	.	.	.	.
.	.	16E	.	16g	.	.	.	.
.	.	16D#JJ	.	16f#JJ	.	.	.	.
[4A	.	16ELL	.	16gLL	.	.	.	.
.	.	16D#	.	16f#	.	.	.	.
.	.	16E	.	16g	.	8cc#X	.	V7
.	.	16D#JJ)	.	16f#JJ)	.	.	.	.
!LO:TX:b:i:t=cresc.	!	!LO:TX:b:i:t=cresc.	!	!LO:TX:b:i:t=cresc.	!	!LO:TX:b:i:t=cresc.	!	!
8AL]	.	8F#L	.	8aL	.	8ddL	.	V(64)
(8A	.	8E	.	8g	.	8cc#	.	V7
8B)	.	8E	.	8g	.	8dd)	.	vi7
16r	.	16r	.	16r	.	16r	.	.
16c#XJk	.	16EJk	.	16gJk	.	16eeJk	.	viio64
=8	=8	=8	=8	=8	=8	=8	=8	=8
8d	f	8D	f	8f#	f	8a	f	I
8r	.	8r	.	8r	.	8r	.	.
8AA	.	8A 8e	.	8g 8a	.	8cc#X	.	V7
8r	.	8r	.	8r	.	8r	.	.
8DD	.	8A 8d	.	8f# 8a	.	8dd	.	I\\
8r	.	8r	.	8r	.	8r	.	.
4r	.	4r	.	4r	.	4r	.	.
=9:|!|:	=9:|!|:	=9:|!|:	=9:|!|:	=9:|!|:	=9:|!|:	=9:|!|:	=9:|!|:	=9:|!|:
!LO:TX:b:i:t=dol.	!	!	!	!LO:TX:b:i:t=dol.	!	!LO:TX:b:i:t=dol.	!	!
(4.F#	.	1r	.	(4.A	.	(4.a	.	I6
8E	.	.	.	8G	.	8g	.	.
8DL	.	.	.	8F#L	.	8f#L	.	I
8B	.	.	.	8d	.	8dd	.	.
8A)	.	.	.	8c#X)	.	8cc#X)	.	V
16r	.	.	.	16r	.	16r	.	.
16GJk	.	.	.	16BJk	.	16bJk	.	IV
=10	=10	=10	=10	=10	=10	=10	=10	=10
!	!	!LO:TX:b:i:t=dol.	!	!	!	!	!	!
(4.A	.	(4.F#	.	8A	.	8a	.	I6
.	.	.	.	8r	.	8r	.	.
.	.	.	.	8c#X	.	8cc#X	.	viio64
8G	.	8E	.	8r	.	8r	.	.
8F#L	.	8DL	.	8d	.	8dd	.	V
8d	.	8B	.	8r	.	8r	.	@none
8c)	.	8A)	.	4r	.	8r	.	.
16r	.	16r	.	.	.	16r	.	.
16AJk	.	16F#Jk	.	.	.	16r	.	I.V
=11	=11	=11	=11	=11	=11	=11	=11	=11
!LO:TX:b:i:t=cresc.	!	!LO:TX:b:i:t=cresc.	!	!LO:TX:b:i:t=cresc.	!	!LO:TX:b:i:t=cresc.	!	!
8d	.	8G	.	(4.b	.	(4.dd	.	V(64)
8r	.	8r	.	.	.	.	.	.
8f#	.	8D	.	.	.	.	.	.
8r	.	8r	.	8a	.	8cc	.	V7
8g	.	8G	.	8gL	.	8bL	.	I
8r	.	8r	.	8ee	.	8gg	.	I(64)
4r	.	4r	.	8dd)	.	8ff#)	.	.
.	.	.	.	16r	.	16r	.	.
.	.	.	.	16ccJk	.	16eeJk	.	.
=12	=12	=12	=12	=12	=12	=12	=12	=12
(4.d	.	(4.B	.	8b	.	8dd	.	iii
.	.	.	.	8r	.	8r	.	.
.	.	.	.	8dd	.	8ff#	.	.
8c	.	8A	.	8r	.	8r	.	V43
8BL	.	8GL	.	8dd	.	8gg	.	I
8g	.	8e	.	8r	.	8r	.	vi
8f)	.	8d)	.	8dd	.	8bb	.	iiio64
16r	.	16r	.	8r	.	8r	.	.
16dJk	.	16BJk	.	.	.	.	.	.
=13	=13	=13	=13	=13	=13	=13	=13	=13
8.GGL	f	8.GL	f	4cc 4ee	f	4ccc	f	IV64
16C'Jk	.	16c'Jk	.	.	.	.	.	.
[4E	sf	[4e	sf	4r	.	4r	.	.
(8.EL]	.	(8.eL]	.	2r	.	2r	.	IV6
16CK)	.	16cK)	.	.	.	.	.	.
8D	.	8d	.	.	.	.	.	.
16r	.	16r	.	.	.	.	.	.
16EJk	.	16eJk	.	.	.	.	.	.
=14	=14	=14	=14	=14	=14	=14	=14	=14
8.AAL	.	8.AL	.	4r	.	2r	.	ii7
16CJk	.	16c'Jk	.	.	.	.	.	.
4E	sf	4e	sf	8.eL	.	.	.	.
.	.	.	.	16gJk	.	.	.	.
8.FF#L	.	8.F#L	.	2d 2cc	sf	4r	.	V65
16AAJk	.	16AJk	.	.	.	.	.	.
8.DL	sf	4d	sf	.	.	8.ddL	sf	.
16FF#Jk	.	.	.	.	.	16ggJk	.	.
=15	=15	=15	=15	=15	=15	=15	=15	=15
4GG	f	8.dL	f	4d 4b	f	8.ddL	f	I
.	.	16BJk	.	.	.	16ggJk	.	.
8.GGL	sf	8.gL	sf	8.ddL	sf	([4bb	sf	.
16BBJk	.	16d'Jk	.	16bJk	.	.	.	.
(8.DL	.	(8.BL	.	(8.gL	.	8.bbL]	.	.
16BBJk)	.	16DJk)	.	16bJk)	.	16ggK)	.	.
8AAL	.	8F#L	.	8dL	.	8aa	.	V64
16r	.	16r	.	16r	.	16r	.	.
16GGJk	.	16GJk	.	16dJk	.	16dddJk	.	I
=16	=16	=16	=16	=16	=16	=16	=16	=16
8FF#	.	8D	.	8d 8a	.	8ccc	.	V65
8r	.	8r	.	8r	.	8r	.	.
8GG	.	8D 8G	.	8d 8g	.	8bb	.	I
8r	.	8r	.	8r	.	8r	.	.
2r	.	2r	.	2r	.	2r	.	.
=17	=17	=17	=17	=17	=17	=17	=17	=17
4BB	.	4B	.	8.dL	.	8.ggL	.	I6
.	.	.	.	16gK	.	16bbJk	.	.
8.GGL	.	8.GL	sf	8.b	sf	[4ddd	sf	I
16DDJk	.	16DJk	.	16ddJk	.	.	.	.
(8.BBBL	.	(8.BBL	.	(8.gL	.	(8.dddL]	.	I6
16GGK)	.	16GJk)	.	16dJk)	.	16bbJk)	.	.
8EEJ	.	8EL	.	8gL	.	8cccL	.	IV6
16r	.	16r	.	16r	.	16r	.	.
16CC	.	16CJk	.	16gJk 16gg	.	16eeeJk	.	IV
=18	=18	=18	=18	=18	=18	=18	=18	=18
8DD	.	8D	.	8b 8gg	.	8bb	.	V(64)
8r	.	8r	.	8r	.	8r	.	.
8D	.	8d	.	8a 8ff#	.	8aa	.	V\\
8r	.	8r	.	8r	.	8r	.	.
(16AALL	.	4r	.	4r	.	4r	.	V7/V
16C#X	.	.	.	.	.	.	.	.
16E	.	.	.	.	.	.	.	.
16GJJ)	.	.	.	.	.	.	.	.
4r	.	(16ALL	p	8.gL	p	16c#XLL	p	.
.	.	16c#X	.	.	.	16e	.	.
.	.	16e	.	.	.	16g	.	.
.	.	16AJJ)	.	16gJk	.	16c#JJ	.	.
=19	=19	=19	=19	=19	=19	=19	=19	=19
8.AAL	.	2.E 2.G	.	(4.g	.	4e	.	.
16C#X'Jk	.	.	.	.	.	.	.	.
4E	.	.	.	.	.	8.cc#XL	.	.
.	.	.	.	8e	.	.	.	.
.	.	.	.	.	.	16eeJk	.	.
4r	.	.	.	8dL	.	4aa	.	.
.	.	.	.	8c#X	.	.	.	.
4GG	.	4E 4A	.	8e)	.	4r	.	V2/V
.	.	.	.	16r	.	.	.	.
.	.	.	.	16aJk	.	.	.	.
=20	=20	=20	=20	=20	=20	=20	=20	=20
8.FF#L	.	2F# 2A	.	(4.a	.	4r	.	V6
16AA'Jk	.	.	.	.	.	.	.	.
4D	.	.	.	.	.	8.ddL	.	.
.	.	.	.	8f#	.	.	.	.
.	.	.	.	.	.	16ff#Jk	.	.
4r	.	(16DLL	.	8eL	.	4aa	.	V7
.	.	16F#	.	.	.	.	.	.
.	.	16A	.	8dJ)	.	.	.	.
.	.	16cJJ)	.	.	.	.	.	.
4D	.	4r	.	(16f#LL	.	8.cccL	.	.
.	.	.	.	16a	.	.	.	.
.	.	.	.	16cc	.	.	.	.
.	.	.	.	16f#JJ)	.	16cccJk	.	.
=21	=21	=21	=21	=21	=21	=21	=21	=21
8.DDL	.	4r	.	2.f# 2.a	.	(4.ccc	.	V43
16GG'Jk	.	.	.	.	.	.	.	.
4AA	.	8.DL	.	.	.	.	.	.
.	.	.	.	.	.	8aa	.	.
.	.	16F#'Jk	.	.	.	.	.	.
4r	.	4A	.	.	.	8ggL	.	.
.	.	.	.	.	.	8ff#	.	.
4CC	.	4r	.	4d 4a	.	8aa)	.	V2
.	.	.	.	.	.	16r	.	.
.	.	.	.	.	.	16dddJk	.	.
=22	=22	=22	=22	=22	=22	=22	=22	=22
8.BBBL	.	4r	.	[2d [2b	.	(4.ddd	.	I
16DD'Jk	.	.	.	.	.	.	.	.
4GG	.	8.BBL	.	.	.	.	.	.
.	.	.	.	.	.	8bb	.	.
.	.	16D'Jk	.	.	.	.	.	.
4r	.	(8GL	.	(8dL] 8b]	.	8aaL	.	.
.	.	8BJ	.	8BJ	.	8gg	.	.
8AAL	.	8EL)	.	8cL)	.	8ccc)	.	ii
16r	.	16r	.	16r	.	16r	.	.
16CJk	.	16cJk	.	16eeJk	.	16aaJk	.	ii6
=23	=23	=23	=23	=23	=23	=23	=23	=23
4D	.	(16ALL	.	(16ccLL	.	(4.gg	.	V7(4)
.	.	16G#X	.	16b	.	.	.	.
.	.	16A	.	16cc	.	.	.	.
.	.	16G#JJ	.	16bJJ	.	.	.	.
[4DD	.	16ALL	.	16ccLL	.	.	.	.
.	.	16G#	.	16b	.	.	.	.
.	.	16A	.	16cc	.	8ff#	.	V7
.	.	16G#JJ)	.	16bJJ)	.	.	.	.
!LO:TX:b:i:t=cresc.	!	!LO:TX:b:i:t=cresc.	!	!LO:TX:b:i:t=cresc.	!	!LO:TX:b:i:t=cresc.	!	!
8DDL]	.	(8BL	.	(8ddL	.	8ggL	.	V(64)
(8DD	.	8A)	.	8cc)	.	8ff#	.	V7
8EE)	.	8D 8A	.	8cc	.	8gg)	.	IV6(+6+2)
16r	.	16r	.	16r	.	16r	.	.
16FF#Jk	.	16DJk 16A	.	16ccJk	.	16aaJk	.	V65
=24	=24	=24	=24	=24	=24	=24	=24	=24
8GG	f	8D 8B	f	8b	f	8dd	f	I
8r	.	8r	.	8r	.	8r	.	.
!	!	!	!	!	!	!LO:TX:a:t=attacca subito	!	!
8DD	.	8d 8a	.	8A 8c	.	8d 8a 8ff#	.	V7
8r	.	8r	.	8r	.	8r	.	.
8GG	.	8d 8g	.	8B	.	8d 8b 8gg	.	I
8r	.	8r	.	8r	.	8r	.	.
4r	.	4r	.	4r	.	4r	.	.
=25:|!	=25:|!	=25:|!	=25:|!	=25:|!	=25:|!	=25:|!	=25:|!	=25:|!
*k[b-e-]	*	*k[b-e-]	*	*k[b-e-]	*	*k[b-e-]	*	*
*M4/4	*	*M4/4	*	*M4/4	*	*M4/4	*	*
*met(c)	*	*met(c)	*	*met(c)	*	*met(c)	*	*
!	!	!	!	!	!	!LO:TX:a:t=  =	!	!
8DD	p	8D	p	1r	.	2r	.	.i.V
8r	.	8r	.	.	.	.	.	.
8FF#X	.	8F#X	.	.	.	.	.	.
8r	.	8r	.	.	.	.	.	.
8GG	.	8G	.	.	.	2r	.	i
8r	.	8r	.	.	.	.	.	.
8BB-	.	8B-	.	.	.	.	.	.
8r	.	8r	.	.	.	.	.	.
=26	=26	=26	=26	=26	=26	=26	=26	=26
8BB-	f	8BB- 8B-	f	8b-	f	4r	.	III
8r	.	8r	.	8r	.	.	.	.
8AA-X	.	8B- 8f	.	8dd	.	4r	.	V2/VI
8r	.	8r	.	8r	.	.	.	.
8GG	.	8B- 8g	.	8ee-	.	2r	.	VI
8r	.	8r	.	8r	.	.	.	.
8EE-	.	8B- 8g	.	8gg	.	.	.	.
8r	.	8r	.	8r	.	.	.	.
=27	=27	=27	=27	=27	=27	=27	=27	=27
*tremolo	*	*	*	*	*	*	*	*
*	*	*tremolo	*	*	*	*	*	*
*	*	*	*	*tremolo	*	*	*	*
16DDLL	p	16D 16FLL	p	16B- 16fLL	p	2.b-	.	III6
16DD	.	16D 16F	.	16B- 16f	.	.	.	.
16DD	.	16D 16F	.	16B- 16f	.	.	.	.
16DD	.	16D 16F	.	16B- 16f	.	.	.	.
16DD	.	16D 16F	.	16B- 16f	.	.	.	.
16DD	.	16D 16F	.	16B- 16f	.	.	.	.
16DD	.	16D 16F	.	16B- 16f	.	.	.	.
16DDJJ	.	16D 16FJJ	.	16B- 16fJJ	.	.	.	.
16DDLL	.	16D 16FLL	.	16B- 16fLL	.	.	.	.
16DD	.	16D 16F	.	16B- 16f	.	.	.	.
16DD	.	16D 16F	.	16B- 16f	.	.	.	.
16DD	.	16D 16F	.	16B- 16f	.	.	.	.
16DD	.	16D 16F	.	16B- 16f	.	[4f	.	.
16DD	.	16D 16F	.	16B- 16f	.	.	.	.
16DD	.	16D 16F	.	16B- 16f	.	.	.	.
16DDJJ	.	16D 16FJJ	.	16B- 16fJJ	.	.	.	.
=28	=28	=28	=28	=28	=28	=28	=28	=28
16DDLL	.	16D 16FLL	.	16B- 16fLL	.	8fL]	.	.
16DD	.	16D 16F	.	16B- 16f	.	.	.	.
16DD	.	16D 16F	.	16B- 16f	.	8f'	.	.
16DD	.	16D 16F	.	16B- 16f	.	.	.	.
16DD	.	16D 16F	.	16B- 16f	.	8e-'	.	.
16DD	.	16D 16F	.	16B- 16f	.	.	.	.
16DD	.	16D 16F	.	16B- 16f	.	8f'J	.	.
16DDJJ	.	16D 16FJJ	.	16B- 16fJJ	.	.	.	.
16DDLL	.	16D 16FLL	.	16B- 16fLL	.	(8e-L	.	.
16DD	.	16D 16F	.	16B- 16f	.	.	.	.
16DD	.	16D 16F	.	16B- 16f	.	8d)	.	.
16DD	.	16D 16F	.	16B- 16f	.	.	.	.
16DD	.	16D 16F	.	16B- 16f	.	8c'	.	.
16DD	.	16D 16F	.	16B- 16f	.	.	.	.
16DD	.	16D 16F	.	16B- 16f	.	8d'J	.	.
16DDJJ	.	16D 16FJJ	.	16B- 16fJJ	.	.	.	.
=29	=29	=29	=29	=29	=29	=29	=29	=29
16DDLL	.	16D 16FLL	.	16B- 16fLL	.	(8cL	.	.
16DD	.	16D 16F	.	16B- 16f	.	.	.	.
16DD	.	16D 16F	.	16B- 16f	.	8B-J)	.	.
16DDJJ	.	16D 16FJJ	.	16B- 16fJJ	.	.	.	.
!LO:TX:b:i:t=cresc.	!	!LO:TX:b:i:t=cresc.	!	!LO:TX:b:i:t=cresc.	!	!	!	!
16DDLL	.	16BXLL	.	16F 16fLL	.	2A-X	.	iv64
16DD	.	16BX	.	16F 16f	.	.	.	.
16DD	.	16BX	.	16F 16f	.	.	.	.
16DDJJ	.	16BXJJ	.	16F 16f	.	.	.	.
16CCLL	.	16cLL	.	16F 16f	.	.	.	.
16CC	.	16c	.	16F 16f	.	.	.	.
16CC	.	16c	.	16F 16f	.	.	.	.
16CCJJ	.	16cJJ	.	16F 16fJJ	.	.	.	.
16CLL	.	16cLL	.	16F 16fLL	.	4A-	.	.
16C	.	16c	.	16F 16f	.	.	.	.
16C	.	16c	.	16F 16f	.	.	.	.
16CJJ	.	16cJJ	.	16F 16fJJ	.	.	.	.
=30	=30	=30	=30	=30	=30	=30	=30	=30
!	!	!	!	!	!	!LO:TX:a:t=rit.	!	!
4C	p	4c	p	4F 4f	p	4A-X	.	.
!	!	!	!	!	!	!LO:TX:b:i:t=espress.	!	!
4r	.	4r	.	4r	.	(4f'	.	.
2r	.	2r	.	2r	.	4g'	.	.
.	.	.	.	.	.	4a-X')	.	.
=31	=31	=31	=31	=31	=31	=31	=31	=31
!	!	!	!	!	!	!LO:TX:a:B:t=A tempo	!	!
8BBX	f	8d	f	8g	f	(8a-X	.	V6(9)
8r	.	8r	.	8r	.	4.g)	.	V2
8F	.	8G	.	8bX	.	.	.	.
8r	.	8r	.	8r	.	.	.	.
8E-	.	8g	.	8cc	.	2r	.	i
8r	.	8r	.	8r	.	.	.	.
8C	.	8e-	.	8ee-	.	.	.	.
8r	.	8r	.	8r	.	.	.	.
=32	=32	=32	=32	=32	=32	=32	=32	=32
16BBXLL	fp	16GLL	fp	16ddLL	fp	4r	.	V6
16BBX	.	16G	.	16d	.	.	.	.
16BBX	.	16G	.	16d	.	.	.	.
16BBX	.	16G	.	16dJJ	.	.	.	.
16BBX	.	16G	.	16dLL	.	[2.dd	sf	.
16BBX	.	16G	.	16d	.	.	.	.
16BBX	.	16G	.	16d	.	.	.	.
16BBXJJ	.	16GJJ	.	16dJJ	.	.	.	.
16BBLL	.	16GLL	.	16dLL	.	.	.	.
16BB	.	16G	.	16d	.	.	.	.
16BB	.	16G	.	16d	.	.	.	.
16BB	.	16G	.	16d	.	.	.	.
16BB	.	16G	.	16d	.	.	.	.
16BB	.	16G	.	16d	.	.	.	.
16BB	.	16G	.	16d	.	.	.	.
16BBJJ	.	16GJJ	.	16dJJ	.	.	.	.
=33	=33	=33	=33	=33	=33	=33	=33	=33
16BBXLL	.	16GLL	.	16dLL	.	(4.dd]	.	.
16BBX	.	16G	.	16d	.	.	.	.
16BBX	.	16G	.	16d	.	.	.	.
16BBX	.	16G	.	16d	.	.	.	.
16BBX	.	16G	.	16d	.	.	.	.
16BBX	.	16G	.	16d	.	.	.	.
16BBX	.	16G	.	16d	.	8g)	.	.
16BBXJJ	.	16GJJ	.	16dJJ	.	.	.	.
16BBLL	.	16GLL	.	16dLL	.	8gL	.	.
16BB	.	16G	.	16d	.	.	.	.
16BB	.	16G	.	16d	.	8g	.	.
16BB	.	16G	.	16d	.	.	.	.
16BB	.	16G	.	16d	.	8g	.	.
16BB	.	16G	.	16d	.	.	.	.
16BB	.	16G	.	16d	.	8a-XJ	.	.
16BBJJ	.	16GJJ	.	16dJJ	.	.	.	.
=34	=34	=34	=34	=34	=34	=34	=34	=34
16BBXLL	.	16D 16FLL	.	16dLL	.	(8gL	.	V65
16BBX	.	16D 16F	.	16d	.	.	.	.
16BBX	.	16D 16F	.	16d	.	8f)	.	.
16BBX	.	16D 16F	.	16d	.	.	.	.
16BBX	.	16D 16F	.	16d	.	8f'	.	.
16BBX	.	16D 16F	.	16d	.	.	.	.
16BBX	.	16D 16F	.	16d	.	8g'J	.	.
16BBXJJ	.	16D 16FJJ	.	16dJJ	.	.	.	.
16BBLL	.	16D 16FLL	.	16A-X 16fLL	.	[2a-X	.	#viio7
16BB	.	16D 16F	.	16A-X 16f	.	.	.	.
16BB	.	16D 16F	.	16A-X 16f	.	.	.	.
16BB	.	16D 16F	.	16A-X 16f	.	.	.	.
16BB	.	16D 16F	.	16A-X 16f	.	.	.	.
16BB	.	16D 16F	.	16A-X 16f	.	.	.	.
16BB	.	16D 16F	.	16A-X 16f	.	.	.	.
16BBJJ	.	16D 16FJJ	.	16A-X 16fJJ	.	.	.	.
=35	=35	=35	=35	=35	=35	=35	=35	=35
!LO:TX:b:i:t=cresc.	!	!LO:TX:b:i:t=cresc.	!	!LO:TX:b:i:t=cresc.	!	!LO:TX:b:i:t=cresc.	!	!
16BBXLL	.	16D 16FLL	.	16A-X 16fLL	.	(4a-]	.	.
16BBX	.	16D 16F	.	16A-X 16f	.	.	.	.
16BBX	.	16D 16F	.	16A-X 16f	.	.	.	.
16BBX	.	16D 16F	.	16A-X 16f	.	.	.	.
16BBX	.	16D 16F	.	16A-X 16f	.	[4ff)	.	.
16BBX	.	16D 16F	.	16A-X 16f	.	.	.	.
16BBX	.	16D 16F	.	16A-X 16f	.	.	.	.
16BBXJJ	.	16D 16FJJ	.	16A-X 16fJJ	.	.	.	.
16GGLL	.	16D 16FLL	.	16BX 16fLL	.	8ffL]	.	V7
16GG	.	16D 16F	.	16BX 16f	.	.	.	.
16GG	.	16D 16F	.	16BX 16f	.	8ff'	.	.
16GG	.	16D 16F	.	16BX 16f	.	.	.	.
16GG	.	16D 16F	.	16BX 16f	.	8ee-'	.	.
16GG	.	16D 16F	.	16BX 16f	.	.	.	.
16GG	.	16D 16F	.	16BX 16f	.	8dd'J	.	.
16GGJJ	.	16D 16FJJ	.	16BX 16fJJ	.	.	.	.
*	*	*	*	*Xtremolo	*	*	*	*
*	*	*Xtremolo	*	*	*	*	*	*
*Xtremolo	*	*	*	*	*	*	*	*
=36	=36	=36	=36	=36	=36	=36	=36	=36
!	!	!	!	!	!	!LO:TX:a:i:t=dim.	!	!
!	!	!	!	!	!	!LO:TX:a:t=rit.	!	!
4D	p	4D 4F	p	4BX 4f	p	(8ccL	.	#viio6
.	.	.	.	.	.	8bX)	.	.
4r	.	4r	.	4r	.	8a-X'	.	.
.	.	.	.	.	.	8g'J	.	.
2r	.	2r	.	2r	.	(8f'L	.	.
.	.	.	.	.	.	8f#X'	.	.
.	.	.	.	.	.	8g'	.	.
.	.	.	.	.	.	8d'J)	.	.
=37	=37	=37	=37	=37	=37	=37	=37	=37
!	!	!	!	!	!	!LO:TX:a:t=immer geschwinder	!	!
!	!	!	!	!	!	!LO:TX:a:t=accel.	!	!
4r	.	4r	.	4r	.	(4f	.	i(4)
4C'	pp	4G'	pp	4e-'	pp	4e-)	.	i
4C'	.	4G' 4e-	.	4cc'	.	4r	.	.
4r	.	4r	.	4r	.	8r	.	.
.	.	.	.	.	.	8cc	.	.
=38	=38	=38	=38	=38	=38	=38	=38	=38
!	!	!	!	!	!	!LO:TX:a:i:t=cresc.	!	!
4r	.	4r	.	4r	.	(4cc	.	V43(4)
!LO:TX:b:i:t=cresc.	!	!LO:TX:b:i:t=cresc.	!	!LO:TX:b:i:t=cresc.	!	!	!	!
4D'	.	4G' 4f	.	4bX'	.	4bX)	.	V43
4D'	.	4BX'	.	4ff'	.	4r	.	#viio6
4r	.	4r	.	4r	.	8r	.	.
.	.	.	.	.	.	8dd	.	.
=39	=39	=39	=39	=39	=39	=39	=39	=39
4r	.	4r	.	4r	.	(4dd	.	i6(2)
4E-'	.	4g'	.	4cc'	.	4cc)	.	i6
4E-'	.	4c'	.	4gg'	.	4r	.	.
4FF#X	ff	4A 4c	ff	4cc 4ccc	ff	[4eee-	ff	i.#viio7
=40||	=40||	=40||	=40||	=40||	=40||	=40||	=40||	=40||
*M2/2	*	*M2/2	*	*M2/2	*	*M2/2	*	*
*met(c|)	*	*met(c|)	*	*met(c|)	*	*met(c|)	*	*
8F#X;	.	8A; 8c	.	8cc; 8ccc	.	(8eee-;L]	.	.
!	!	!	!	!	!	!LO:TX:a:B:t=Presto	!	!
*MM160	*	*MM160	*	*MM160	*	*MM160	*	*
!	!	!	!	!	!	!LO:TX:a:t=[quarter]=160	!	!
8r	.	8r	.	8r	.	8ccc	.	.
4r	.	4r	.	4r	.	8bb-	.	.
.	.	.	.	.	.	8aaJ)	.	.
2r	.	2r	.	2r	.	(8ggL	.	.
.	.	.	.	.	.	8ff#X	.	.
.	.	.	.	.	.	8ee-	.	.
.	.	.	.	.	.	8ddJ)	.	.
=41	=41	=41	=41	=41	=41	=41	=41	=41
1r	.	1r	.	1r	.	(8ccL	.	.
.	.	.	.	.	.	8b-	.	.
.	.	.	.	.	.	8a	.	.
.	.	.	.	.	.	8gJ)	.	.
.	.	.	.	.	.	(8f#XL	.	.
.	.	.	.	.	.	8e-	.	.
.	.	.	.	.	.	8d	.	.
.	.	.	.	.	.	8cJ)	.	.
=42	=42	=42	=42	=42	=42	=42	=42	=42
1r	.	1r	.	1r	.	(8B-L	.	.
.	.	.	.	.	.	8A	.	.
.	.	.	.	.	.	8G	.	.
.	.	.	.	.	.	8F#XJ)	.	.
.	.	.	.	.	.	(8AL	.	.
.	.	.	.	.	.	8c	.	.
.	.	.	.	.	.	8e-	.	.
.	.	.	.	.	.	8f#XJ)	.	.
=43	=43	=43	=43	=43	=43	=43	=43	=43
1r	.	1r	.	1r	.	(8gL	.	.
.	.	.	.	.	.	8a-X	.	.
.	.	.	.	.	.	8a	.	.
.	.	.	.	.	.	8b-J	.	.
.	.	.	.	.	.	8bXL	.	.
.	.	.	.	.	.	8cc	.	.
.	.	.	.	.	.	8cc#X	.	.
.	.	.	.	.	.	8ddJ)	.	.
=44	=44	=44	=44	=44	=44	=44	=44	=44
4r	.	4r	.	4r	.	(4ee-	.	.
4C'	>	4A'	>	4ee-'	>	2f#X	.	#viio43
4C'	.	4A'	.	4e-'	.	.	.	.
4C#X'	]]	4B-'	]]	4eX'	]]	4g)	.	#viio7/V
=45	=45	=45	=45	=45	=45	=45	=45	=45
4r	.	4r	.	4r	.	(4g	.	.
4D	p	4B-	p	4g	p	[2.d)	.	V
4r	.	4r	.	4r	.	.	.	.
4D	.	4A	.	4f#X	.	.	.	.
=46	=46	=46	=46	=46	=46	=46	=46	=46
!	!	!	!	!	!	!LO:TX:a:B:t=poco Adagio	!	!
*MM60	*	*MM60	*	*MM60	*	*MM60	*	*
!	!	!	!	!	!	!LO:TX:a:t=[quarter]=60	!	!
2r	.	2r	.	2r	.	(4.d]	.	.
!	!	!	!	!	!	!LO:TX:a:t=smorzando	!	!
.	.	.	.	.	.	8e-)	.	.
4r	.	4r	.	4r	.	(4e-	.	.
8r	.	8r	.	8r	.	8d)	.	.
8r;	.	8r;	.	8r;	.	8r;	.	.
=||	=||	=||	=||	=||	=||	=||	=||	=||
*-	*-	*-	*-	*-	*-	*-	*-	*-
!!!system-decoration: [(s1,s2,s3,s4)]
